X: 1
T: the Road From Winchester - harmonies
C: Noah VanNorstrand
R: waltz
S: Audrey Knuth 2020-09-24
Z: 2020 John Chambers <jc:trillian.mit.edu>
M: 3/4
L: 1/8
K: A
% - - - - -
V: 1 staves=3
Ac |:\
"A"e4 (ce) | "D"f4 (ef) | "A"e2 c2 BA | "F#m"F2A2 c2 |\
"E"B4  AB  | "A"c4 (BA) | "F#m"F4 (FE) |1 F4 (Ac) :|2 F4 c2 ||
|:\
"E"B4 (AB) | "A(C#m)"c4 (BA) | "D"F2 A2 AG | F2 (E2 A2) |\
"E"B4 (AB) | "A"c4 (BA) | "F#m"F4 FE |1 F4 c2 :|2 F6 |]
% - - - - -
V: 2
EA |:\
c4 (Ac) | d4 (cd) | c2 A2 E2 | C2 F2 A2 |
G4  FG  | A4 (GE) | C4 C2 |1 C4 (EA) :|2 C4 A2 |]
|:\
G4 (FG) | A4 (GE) | D2 F2 FE | D2 C2 E2 |
G4  FG  | A4 (GE) | C4 C2 |1 C4 F2 :|2 C6 |]
% - - - - -
V: 3
CE |:\
A4 (EA) | A4 A2 | A2 E2 C2 | A,2 C2 F2 |
E4  E2  | E4 C2 | A,4 A,2 |1 A,4 CE :|2 A,4 F2 |]
|:\
E4  E2  | E4 C2 | A,2 D4 | A,4 C2 |
E4  E2  | E4 C2 | A,4 A,2 |1 A,4 A2 :|2 A,6 |]
